media/images/learn/mercurial.svg

<?xml version="1.0" encoding="UTF-8" standalone="no"?>
<svg width="358px" height="103px" viewBox="0 0 358 103" version="1.1" xmlns="http://www.w3.org/2000/svg" xmlns:xlink="http://www.w3.org/1999/xlink" xmlns:sketch="http://www.bohemiancoding.com/sketch/ns">
    <!-- Generator: Sketch 3.4 (15575) - http://www.bohemiancoding.com/sketch -->
    <title>logo-droplets</title>
    <desc>Created with Sketch.</desc>
    <defs></defs>
    <g id="Page-1" stroke="none" stroke-width="1" fill="none" fill-rule="evenodd" sketch:type="MSPage">
        <g id="logo-droplets" sketch:type="MSLayerGroup">
            <path d="M135,42.0503733 C138.758687,40.3931404 142.752856,39.5653489 146.590032,39.5653489 C150.270229,39.5653489 152.619656,40.4680634 153.950449,42.3518846 C156.76901,40.4697768 160.606206,39.5653489 163.581763,39.5653489 C172.510203,39.5653489 172.822407,43.1796126 172.822407,53.7974443 L172.822407,77.2879691 C172.822407,78.3421162 172.97938,78.3421162 168.516053,78.3421162 L168.516053,53.3443102 C168.516053,45.6645525 168.35906,43.329501 163.271344,43.329501 C161.000447,43.329501 158.651041,43.8556966 156.144644,45.512993 L156.144644,77.8141014 C156.066157,78.115676 155.909178,78.1905145 155.363298,78.2654586 C155.283006,78.2654586 155.206304,78.3403816 155.126032,78.3403816 L151.836503,78.3403816 L151.836503,53.3443102 C151.836503,45.9659156 151.836503,43.2544722 146.513326,43.2544722 C144.242409,43.2544722 141.971489,43.7058083 139.308119,44.9867551 L139.308119,77.2879691 C139.308119,78.3421162 139.465115,78.3421162 135.001786,78.3421162 L135.001786,42.0503733 M193.872498,39.5653489 C187.21674,39.5653489 179.856342,41.4473721 179.856342,61.5520828 C179.856342,77.0630732 185.258028,79.4714401 192.698677,79.4714401 C198.412547,79.4714401 203.346839,77.5894381 203.346839,76.6849467 C203.346839,75.5558132 203.189865,73.8235938 202.799174,72.8442217 C200.371281,74.5014546 196.92476,75.4040846 193.08937,75.4040846 C187.842895,75.4040846 184.319671,73.8984956 184.239398,62.2281668 C187.685921,62.2281668 196.457384,62.1531169 202.956167,60.8724028 C203.503835,58.387463 203.737509,54.773157 203.737509,51.6120062 C203.737509,44.082306 200.683466,39.5653489 193.872498,39.5653489 M193.480042,43.329501 C198.178852,43.329501 199.431179,46.4155595 199.509666,52.4398823 C199.509666,54.0203308 199.431179,55.9024174 199.195696,57.7095175 C194.810857,58.7638338 187.370148,58.7638338 184.237615,58.7638338 C184.788849,45.0616146 189.485873,43.329501 193.480042,43.329501 M210.552027,42.8781437 C214.230462,40.4680634 217.600263,39.5653489 221.044998,39.5653489 C224.882172,39.5653489 226.683912,40.6196652 226.683912,41.9005908 C226.683912,42.6533112 226.446665,43.9342156 226.055973,44.6870207 C224.958874,44.0839982 223.708353,43.5577602 221.669347,43.5577602 C219.164752,43.5577602 216.815329,44.2338866 214.936868,45.8911195 L214.936868,77.2897671 C214.936868,78.3439776 215.015375,78.3439776 210.552027,78.3439776 L210.552027,42.8781437 M250.085231,42.0503733 C250.085231,41.0710013 246.79749,39.5653489 243.507961,39.5653489 C237.162605,39.5653489 229.411516,41.7488833 229.411516,60.3461014 C229.411516,77.9640109 234.112108,79.5462996 242.332357,79.5462996 C246.40323,79.5462996 250.085231,77.3628922 250.085231,76.1587087 C250.085231,75.4807421 249.930021,74.4264682 249.53578,73.5221037 C247.891017,74.7262449 245.386422,75.8571552 242.724833,75.8571552 C237.087686,75.8571552 233.798138,74.2766221 233.798138,60.5727107 C233.798138,45.43807 239.199826,43.329501 243.898635,43.329501 C246.560224,43.329501 248.04801,44.082306 249.53578,45.0616146 C249.930021,44.1589635 250.085231,42.8781437 250.085231,42.0503733 M280.081649,77.0630732 C276.635128,78.7952291 272.095079,79.4731323 268.179397,79.4731323 C258.155625,79.4731323 256.667836,75.2578133 256.667836,65.2428983 L256.667836,41.6757159 C256.667836,40.698163 256.591132,40.698163 261.05448,40.698163 L261.05448,65.696117 C261.05448,73.225923 262.149792,75.7859339 268.022403,75.7859339 C270.293339,75.7859339 273.425872,75.3345555 275.775275,73.9787915 L275.775275,41.6775139 C275.775275,40.6998975 275.618303,40.6998975 280.081649,40.6998975 L280.081649,77.0630732 M289.011874,42.8781437 C292.690269,40.4680634 296.058302,39.5653489 299.503039,39.5653489 C303.340193,39.5653489 305.14195,40.6196652 305.14195,41.9005908 C305.14195,42.6533112 304.906472,43.9342156 304.515778,44.6870207 C303.418681,44.0839982 302.166415,43.5577602 300.129175,43.5577602 C297.62458,43.5577602 295.275153,44.2338866 293.394928,45.8911195 L293.394928,77.2897671 C293.394928,78.3439776 293.4752,78.3439776 289.011874,78.3439776 L289.011874,42.8781437 M315.196025,40.6946305 C311.749543,40.6946305 310.732718,40.6946305 310.732718,42.7282342 L310.732718,78.3421162 C315.117559,78.3421162 315.196025,78.3421162 315.196025,77.2879691 L315.196025,40.6946305 M310.57572,27.443684 C310.57572,29.9287084 311.358871,30.8314018 312.923345,30.9062614 C314.725102,30.9062614 315.586719,29.6272184 315.586719,27.3670476 C315.665206,25.033646 315.037266,23.9793932 313.237313,23.9793932 C311.515867,23.9793932 310.65421,25.2602342 310.57572,27.443684 M322.624241,42.8781437 C322.624241,42.0503733 322.78122,41.5973027 323.095188,41.3724702 C324.582975,40.5446998 330.300386,39.5653489 336.799186,39.5653489 C341.733444,39.5653489 344.86422,41.9005908 344.86422,48.6757514 L344.86422,53.5690581 C344.86422,66.9715218 344.473529,76.9864579 344.473529,76.9864579 C342.671822,77.9640109 339.305554,79.4714401 333.821831,79.4714401 C328.184688,79.5462996 322.54752,79.0200193 322.54752,67.8760343 C322.54752,57.2599794 328.341663,55.6027676 334.135802,55.6027676 C336.32822,55.6027676 338.913107,55.8292501 340.636357,56.5071532 L340.636357,49.5035429 C340.636357,44.6102997 338.131745,43.5560046 335.154412,43.5560046 C331.162001,43.5560046 325.603349,44.3088096 323.175458,45.43807 C322.704535,44.6102997 322.624241,43.329501 322.624241,42.8781437 M340.634559,59.5950309 C339.146802,59.0669949 337.03286,58.842247 335.545061,58.842247 C331.081726,58.842247 327.009082,59.7449615 327.009082,68.027636 C327.009082,75.7822322 330.377107,75.8589743 334.369455,75.8589743 C336.875844,75.8589743 339.382275,75.1811346 340.242112,74.2784412 C340.243889,74.2766221 340.634559,65.2411003 340.634559,59.5950309 M357.251648,77.2879691 C357.251648,78.3421162 357.330146,78.3421162 352.943511,78.3421162 L352.943511,25.033646 C352.943511,23 353.805125,23 357.251648,23 L357.251648,77.2879691" id="text2611" fill="#010101" sketch:type="MSShapeGroup"></path>
            <g id="g4503" transform="translate(0.190057, 0.164427)" sketch:type="MSShapeGroup">
                <path d="M98.4230288,78.262736 C117.163102,47.1033201 94.4651689,-3.43274899 52.962457,1.70136997 C15.4639418,6.33708036 14.8597339,45.8062622 47.9076193,55.1826002 C76.5064728,63.3039248 53.8159189,81.4440048 54.4789204,93.5239018 C55.144718,105.601981 79.3412899,109.983975 98.4230288,78.262736 L98.4230288,78.262736 Z" id="path2339" fill="#1B1A1B"></path>
                <circle id="circle2341" fill="#1B1A1B" transform="translate(29.844147, 82.342228) rotate(-14.670037) translate(-29.844147, -82.342228) " cx="29.8441467" cy="82.3422279" r="16.2675932"></circle>
                <path d="M10.2283401,37.3453143 C4.37644862,37.9117746 0.0927464513,43.1100393 0.659203024,48.9619298 C1.226735,54.8179041 6.42478177,59.1049344 12.2776926,58.5382067 C18.1287331,57.9643326 22.4160261,52.7673079 21.8472598,46.9149311 C21.2785402,41.0669055 16.0812509,36.7785865 10.2283401,37.3453143 L10.2283401,37.3453143 Z" id="path2343" fill="#1B1A1B"></path>
                <path d="M99.1306576,76.9985462 C117.871752,45.8388637 95.1738189,-4.69720565 53.671108,0.43691284 C16.1725946,5.07262305 15.5676293,44.5430945 48.6155165,53.9194315 C77.2143692,62.0407561 54.5238152,80.1808361 55.1870851,92.2617533 C55.8536364,104.338542 80.0489197,108.719779 99.1306576,76.9985462 L99.1306576,76.9985462 Z" id="path2561" fill="#BFBFBF"></path>
                <path d="M59.9959755,97.0292183 C58.8602841,95.1871848 60.5970133,93.1408528 62.3821637,93.2964495 C65.2237614,93.5453163 71.4108053,93.2631307 76.292752,90.4959705 C88.4893424,83.5818656 107.258819,50.3135976 97.8187592,29.3307099 C93.5925134,19.9378556 91.5346148,17.2484871 87.1822608,12.6538824 C86.294387,11.7168253 86.8040988,11.7677582 87.4053264,12.0849253 C89.7589252,13.3201148 93.8947698,18.1044944 98.1370437,25.8916494 C105.304695,39.0484405 104.93299,54.6894917 102.267191,64.5010918 C100.410286,71.3266686 94.0143817,86.7676249 84.6476054,93.4438451 C75.2597522,100.135402 64.2749992,103.97327 59.9959755,97.0292183 L59.9959755,97.0292183 Z" id="path2563" fill="#000000"></path>
                <path d="M51.4974278,53.8555535 C45.1076078,51.9587586 36.8700528,49.3172727 32.1053652,43.0851021 C28.5928856,38.4899082 26.8097841,33.4747163 26.3544213,30.6309257 C26.1924189,29.6162124 26.0548048,28.7696649 26.3471179,28.5360473 C26.4823567,28.4275504 28.9699871,34.0503306 32.6888038,38.7627846 C36.4068723,43.4765271 41.6036099,46.2333102 45.932853,47.2349466 C49.7834616,48.1251498 57.7597527,50.08119 60.4584089,52.380264 C63.232779,54.7435209 63.4643552,59.8495992 62.5307609,60.4256474 C61.5892647,61.0048555 59.6801392,56.2833897 51.4974278,53.8555535 L51.4974278,53.8555535 Z" id="path2565" fill="#000000"></path>
                <path d="M64.6730113,97.9299941 C64.5496795,99.3925041 66.2295367,99.6793093 68.4907201,99.3404546 C71.3890074,98.9057395 73.8400124,98.5793783 77.1759109,96.9075201 C81.6970928,94.6417219 86.2727602,91.4005336 89.623835,87.027891 C99.6220661,73.9832691 103.162562,58.5490673 102.617333,56.3288203 C102.435134,58.16239 100.021457,67.7868934 94.5014445,76.4638121 C87.4119219,87.6091227 82.2709117,93.545653 70.4141606,96.4237667 C67.1144564,97.2253998 64.8344853,96.0047525 64.6730113,97.9299941 L64.6730113,97.9299941 Z" id="path2567" fill="#FFFFFF"></path>
                <path d="M38.375663,47.2048896 C39.7260974,48.3503185 42.4930051,49.8765961 47.937277,51.6620027 C54.5127385,53.8178462 57.7142576,55.6874512 59.0550208,56.5834045 C60.4757528,57.5347897 61.3762322,59.6576735 61.4651904,57.772147 C61.5579649,55.8845304 60.3944888,54.2614179 57.7985205,53.4005966 C56.0421741,52.8174432 53.0876208,51.4286563 50.2553922,50.869692 C48.4354792,50.5104589 45.4745819,49.7975363 42.9353415,49.0200493 C41.5436959,48.5923383 40.1257076,47.8431493 38.375663,47.2048896 L38.375663,47.2048896 Z" id="path2569" fill="#FFFFFF"></path>
                <circle id="circle2577" fill="#BFBFBF" transform="translate(30.552797, 81.077774) rotate(-14.670037) translate(-30.552797, -81.077774) " cx="30.5527968" cy="81.0777735" r="16.2675932"></circle>
                <path d="M20.8682975,92.9329635 C33.521689,104.658021 52.5675374,88.5521104 44.180854,74.3267676 C43.2390913,72.7296163 42.0163774,71.5136587 42.4184938,72.7371581 C45.0987521,80.916863 42.6220254,87.3875897 38.0007964,90.721431 C33.469733,93.9912998 27.2418434,94.5383711 22.255894,91.9533279 C20.7917289,91.1944117 20.1844818,92.3003089 20.8682975,92.9329635 L20.8682975,92.9329635 Z" id="path2579" fill="#000000"></path>
                <path d="M30.7968528,95.3412292 C32.4078338,95.0024026 41.7775913,92.5757148 43.9787719,84.8690766 C44.6643363,82.4662665 44.7874278,82.948967 44.5937151,84.2509885 C43.6049058,90.896226 37.3235641,95.7981443 31.9786173,95.9798873 C30.8939757,96.091458 29.4708535,95.6185334 30.7968528,95.3412292 L30.7968528,95.3412292 Z" id="path2585" fill="#FFFFFF"></path>
                <path d="M10.9369836,36.0808579 C5.08510146,36.6473182 0.801399287,41.8455829 1.36785586,47.6974725 C1.93511665,53.5524256 7.13343461,57.840478 12.9853261,57.2740177 C18.8373859,56.6998753 23.1244171,51.5018304 22.5546222,45.649721 C21.9869219,39.8014279 16.7898944,35.5141302 10.9369836,36.0808579 L10.9369836,36.0808579 Z" id="path2589" fill="#BFBFBF"></path>
                <path d="M6.10755674,54.771846 C6.17244559,55.5239732 7.20256896,56.4902279 8.82093749,56.9338614 C10.2112926,57.314998 13.7954689,58.2892407 18.3999309,55.3830777 C23.0043929,52.4769147 23.5353238,44.7035127 21.4422071,42.4171939 C20.7943005,41.2591295 19.951746,40.4160289 20.6221332,42.2642287 C22.315116,46.9310023 19.0253943,51.2963116 16.1879215,53.3177073 C13.3514679,55.3388356 9.75406891,54.3823483 8.28514392,53.9345012 C6.81622828,53.4866549 6.04162054,53.9949014 6.10755674,54.771846 L6.10755674,54.771846 Z" id="path2591" fill="#000000"></path>
                <path d="M12.0494454,55.8160553 C12.471452,55.4361165 14.6078092,55.5914159 16.5366792,54.5540845 C18.4645298,53.5170196 20.7560255,51.2436337 21.1649309,48.01322 C21.4058118,46.1162858 21.4781536,46.5926367 21.5740515,47.625745 C21.2748371,52.9962368 16.3359623,55.9626719 13.5114317,56.3540848 C12.7492612,56.4597894 11.4079631,56.3952727 12.0494454,55.8160553 L12.0494454,55.8160553 Z" id="path2597" fill="#FFFFFF"></path>
                <path d="M96.5360864,56.7567716 C104.515339,33.7578249 87.8178751,-0.9747393 54.0385833,3.20334535 C23.5167988,6.97703555 23.0246198,39.1021245 49.9234612,46.7346413 C80.3920984,51.3467527 62.0451447,74.331375 59.4425444,85.9221247 C57.1092661,96.3121493 84.0657191,98.0221327 96.5360864,56.7567716 L96.5360864,56.7567716 Z" id="path2561_1_" fill="#999999"></path>
                <path d="M75.658504,74.7211588 C67.4043157,73.6997135 55.5260538,92.3355634 66.7259696,90.1530574 C77.9241105,87.9721131 55.5260538,92.3355634 66.7259696,90.1530574 C72.1091511,89.354744 76.5688415,87.4541431 80.561162,82.89727 C85.7666384,76.9569552 93.5427382,64.1253153 95.7917265,55.8345101 C97.6862303,48.844177 96.733968,38.0138574 94.7810146,48.1897703 C92.7780288,58.6329702 83.9126912,75.7426051 75.658504,74.7211588 L75.658504,74.7211588 Z" id="path2571" fill="#F3F3F3"></path>
                <path d="M20.2125171,89.6278027 C22.1235167,89.6599059 23.2794434,89.9289529 25.2145881,91.2867841 C29.039907,92.8763505 36.071356,91.8691005 39.3183048,87.5946281 C42.5652535,83.3201491 42.6718679,77.4306073 41.4347623,73.8718031 C38.4084394,65.1619463 25.5516286,65.3159467 19.8080255,72.5469905 C13.5948081,80.6220831 18.3015082,89.5956996 20.2125171,89.6278027 L20.2125171,89.6278027 Z" id="path2581" fill="#999999"></path>
                <path d="M3.14611336,49.266178 C3.52701157,50.4656633 4.50028823,52.2158238 6.55556007,52.5075898 C9.30007138,52.8972007 9.86116964,54.1372117 13.1019558,53.4939153 C16.342742,52.8506189 18.7992138,50.1947619 19.7821971,47.2569858 C20.9075825,43.1920794 19.2225296,41.0934894 16.6865155,39.2198503 C14.1505107,37.3462111 8.57180882,37.5476901 5.24254038,40.5825853 C2.87653334,42.7380202 2.21876107,46.3458506 3.14611336,49.266178 L3.14611336,49.266178 Z" id="path2593_2_" fill="#999999"></path>
                <path d="M13.9240403,51.9543027 C16.4141861,51.3024152 19.7074987,47.9092866 18.0725503,45.318657 C16.0554225,42.1265996 10.4356029,44.8589196 10.2455559,48.4127779 C10.0547608,51.9679239 11.2848249,52.6452133 13.9240403,51.9543027 L13.9240403,51.9543027 Z" id="path256" fill="#F3F3F3"></path>
                <path d="M32.6219885,90.2487495 C34.7466285,89.692542 41.2556283,87.0438256 40.0330827,77.58139 C39.4143335,72.7883089 36.8000394,83.5300911 31.9590076,85.1366882 C24.6246504,87.5705578 25.4486331,92.126636 32.6219885,90.2487495 L32.6219885,90.2487495 Z" id="path258" fill="#F3F3F3"></path>
            </g>
        </g>
    </g>
</svg>

<svg width="358" height="103" viewBox="0 0 358 103" xmlns="http://www.w3.org/2000/svg"><title>logo-droplets</title><g fill="none" fill-rule="evenodd"><path d="M135 42.05c3.76-1.657 7.753-2.485 11.59-2.485 3.68 0 6.03.903 7.36 2.787 2.82-1.882 6.656-2.787 9.632-2.787 8.928 0 9.24 3.615 9.24 14.232v23.49c0 1.055.157 1.055-4.306 1.055V53.344c0-7.68-.157-10.014-5.245-10.014-2.27 0-4.62.526-7.125 2.183v32.3c-.08.303-.236.378-.782.452-.08 0-.157.075-.237.075h-3.29V53.344c0-7.378 0-10.09-5.323-10.09-2.27 0-4.542.452-7.205 1.733v32.3c0 1.055.157 1.055-4.306 1.055V42.05m58.87-2.485c-6.655 0-14.016 1.882-14.016 21.987 0 15.51 5.402 17.92 12.843 17.92 5.713 0 10.647-1.883 10.647-2.787 0-1.13-.157-2.86-.548-3.84-2.43 1.656-5.875 2.56-9.71 2.56-5.247 0-8.77-1.507-8.85-13.177 3.446 0 12.217-.075 18.716-1.356.548-2.485.782-6.1.782-9.26 0-7.53-3.055-12.047-9.866-12.047m-.392 3.765c4.7 0 5.95 3.086 6.03 9.11 0 1.58-.08 3.462-.314 5.27-4.385 1.054-11.826 1.054-14.958 1.054.55-13.702 5.248-15.434 9.242-15.434m17.072-.452c3.678-2.41 7.048-3.313 10.493-3.313 3.837 0 5.64 1.055 5.64 2.336 0 .753-.238 2.034-.63 2.787-1.096-.603-2.347-1.13-4.386-1.13-2.505 0-4.855.677-6.733 2.334v31.4c0 1.054.078 1.054-4.385 1.054V42.878m39.533-.828c0-.98-3.288-2.485-6.577-2.485-6.345 0-14.096 2.184-14.096 20.78 0 17.62 4.7 19.2 12.92 19.2 4.07 0 7.753-2.182 7.753-3.386a7.13 7.13 0 0 0-.55-2.638c-1.644 1.204-4.15 2.335-6.81 2.335-5.637 0-8.927-1.58-8.927-15.284 0-15.135 5.402-17.243 10.1-17.243 2.662 0 4.15.752 5.638 1.732.394-.903.55-2.184.55-3.012m29.996 35.013c-3.447 1.732-7.987 2.41-11.903 2.41-10.024 0-11.512-4.215-11.512-14.23V41.676c0-.978-.077-.978 4.386-.978v24.998c0 7.53 1.096 10.09 6.968 10.09 2.27 0 5.404-.45 7.753-1.807V41.677c0-.978-.157-.978 4.307-.978v36.363m8.93-34.185c3.678-2.41 7.046-3.313 10.49-3.313 3.838 0 5.64 1.055 5.64 2.336 0 .753-.236 2.034-.626 2.787-1.097-.603-2.35-1.13-4.387-1.13-2.505 0-4.855.677-6.735 2.334v31.4c0 1.054.08 1.054-4.383 1.054V42.878m26.184-2.183c-3.446 0-4.463 0-4.463 2.033v35.614c4.385 0 4.463 0 4.463-1.054V40.695m-4.62-13.25c0 2.484.783 3.386 2.347 3.46 1.802 0 2.664-1.278 2.664-3.538.078-2.333-.55-3.388-2.35-3.388-1.72 0-2.583 1.28-2.66 3.464m12.047 15.434c0-.828.157-1.28.47-1.506 1.49-.827 7.206-1.807 13.705-1.807 4.933 0 8.064 2.336 8.064 9.11v4.894c0 13.402-.39 23.416-.39 23.416-1.802.978-5.168 2.485-10.652 2.485-5.637.076-11.274-.45-11.274-11.594 0-10.616 5.794-12.273 11.588-12.273 2.192 0 4.777.226 6.5.904v-7.003c0-4.894-2.504-5.948-5.482-5.948-3.992 0-9.55.753-11.98 1.882-.47-.828-.55-2.108-.55-2.56m18.01 16.717c-1.487-.528-3.6-.753-5.09-.753-4.462 0-8.535.903-8.535 9.186 0 7.754 3.367 7.83 7.36 7.83 2.506 0 5.012-.677 5.872-1.58.002 0 .393-9.037.393-14.683m16.617 17.693c0 1.054.078 1.054-4.308 1.054V25.034c0-2.034.86-2.034 4.308-2.034v54.288" fill="#010101"/><g transform="translate(.19 .164)"><path d="M98.423 78.263c18.74-31.16-3.958-81.696-45.46-76.562-37.5 4.637-38.103 44.106-5.055 53.483 28.598 8.12 5.908 26.26 6.57 38.34.667 12.08 24.863 16.46 43.945-15.26z" fill="#1B1A1B"/><circle fill="#1B1A1B" transform="rotate(-14.67 29.844 82.342)" cx="29.844" cy="82.342" r="16.268"/><path d="M10.228 37.345C4.376 37.912.093 43.11.658 48.962c.57 5.856 5.767 10.143 11.62 9.576 5.85-.574 10.138-5.77 9.57-11.623-.57-5.848-5.767-10.136-11.62-9.57z" fill="#1B1A1B"/><path d="M99.13 77C117.873 45.84 95.175-4.698 53.67.436 16.174 5.073 15.57 44.543 48.617 53.92c28.598 8.12 5.908 26.26 6.57 38.342C55.855 104.34 80.05 108.72 99.132 77z" fill="#BFBFBF"/><path d="M59.996 97.03c-1.136-1.843.6-3.89 2.386-3.734 2.842.25 9.03-.033 13.91-2.8C88.49 83.582 107.26 50.314 97.82 29.33 93.592 19.94 91.534 17.25 87.18 12.655c-.888-.937-.378-.886.223-.57 2.354 1.236 6.49 6.02 10.732 13.808 7.168 13.156 6.796 28.797 4.13 38.61-1.857 6.825-8.253 22.266-17.62 28.942-9.387 6.69-20.372 10.53-24.65 3.585zM51.497 53.856c-6.39-1.897-14.627-4.54-19.392-10.77-3.512-4.596-5.295-9.61-5.75-12.455-.163-1.014-.3-1.86-.008-2.094.135-.108 2.623 5.514 6.342 10.227 3.717 4.714 8.914 7.47 13.243 8.472 3.85.89 11.827 2.846 14.525 5.145 2.775 2.364 3.006 7.47 2.073 8.046-.94.58-2.85-4.143-11.033-6.57z" fill="#000"/><path d="M64.673 97.93c-.123 1.463 1.557 1.75 3.818 1.41 2.9-.434 5.35-.76 8.686-2.432 4.52-2.266 9.097-5.507 12.448-9.88 9.998-13.045 13.54-28.48 12.993-30.7-.182 1.834-2.596 11.46-8.116 20.136-7.088 11.145-12.23 17.082-24.086 19.96-3.3.8-5.58-.42-5.74 1.506zM38.376 47.205c1.35 1.145 4.117 2.672 9.56 4.457 6.577 2.156 9.778 4.025 11.12 4.92 1.42.953 2.32 3.076 2.41 1.19.092-1.887-1.072-3.51-3.667-4.37-1.758-.585-4.712-1.973-7.545-2.532a82.392 82.392 0 0 1-7.32-1.85c-1.39-.428-2.81-1.177-4.56-1.815z" fill="#FFF"/><circle fill="#BFBFBF" transform="rotate(-14.67 30.553 81.078)" cx="30.553" cy="81.078" r="16.268"/><path d="M20.868 92.933c12.654 11.725 31.7-4.38 23.313-18.606-.94-1.597-2.164-2.813-1.762-1.59 2.68 8.18.204 14.65-4.417 17.984-4.53 3.27-10.758 3.818-15.744 1.233-1.464-.76-2.072.347-1.388.98z" fill="#000"/><path d="M30.797 95.34c1.61-.338 10.98-2.764 13.182-10.47.684-2.404.807-1.92.614-.62-.99 6.646-7.27 11.548-12.615 11.73-1.086.11-2.51-.36-1.183-.64z" fill="#FFF"/><path d="M10.937 36.08C5.085 36.648.8 41.847 1.367 47.698c.568 5.855 5.766 10.143 11.618 9.577 5.852-.574 10.14-5.772 9.57-11.624-.568-5.85-5.765-10.136-11.618-9.57z" fill="#BFBFBF"/><path d="M6.108 54.772c.064.752 1.095 1.718 2.713 2.162 1.39.38 4.975 1.355 9.58-1.55 4.604-2.907 5.135-10.68 3.042-12.967-.648-1.158-1.49-2-.82-.153 1.693 4.667-1.597 9.032-4.434 11.054-2.837 2.02-6.434 1.064-7.903.617-1.47-.448-2.243.06-2.177.837z" fill="#000"/><path d="M12.05 55.816c.42-.38 2.558-.225 4.487-1.262 1.928-1.037 4.22-3.31 4.628-6.54.24-1.898.313-1.42.41-.388-.3 5.37-5.24 8.337-8.064 8.728-.76.106-2.102.04-1.46-.538z" fill="#FFF"/><path d="M96.536 56.757c7.98-23-8.718-57.732-42.497-53.554-30.523 3.774-31.015 35.9-4.117 43.532 30.47 4.612 12.122 27.596 9.52 39.187-2.334 10.39 24.623 12.1 37.093-29.165z" fill="#999"/><path d="M75.66 74.72c-8.256-1.02-20.134 17.616-8.934 15.433 11.198-2.18-11.2 2.183 0 0 5.383-.798 9.843-2.7 13.835-7.256 5.207-5.94 12.983-18.772 15.232-27.062 1.894-6.99.942-17.82-1.01-7.645-2.004 10.443-10.87 27.553-19.123 26.53z" fill="#F3F3F3"/><path d="M20.213 89.628c1.91.032 3.066.3 5.002 1.66 3.825 1.588 10.856.58 14.103-3.693 3.247-4.275 3.354-10.164 2.117-13.723-3.027-8.71-15.883-8.556-21.627-1.325-6.213 8.075-1.506 17.05.405 17.08zM3.146 49.266c.38 1.2 1.354 2.95 3.41 3.242 2.744.39 3.305 1.63 6.546.986 3.24-.643 5.697-3.3 6.68-6.237 1.126-4.065-.56-6.164-3.095-8.037-2.536-1.874-8.115-1.672-11.444 1.363-2.366 2.155-3.024 5.763-2.097 8.683z" fill="#999"/><path d="M13.924 51.954c2.49-.652 5.783-4.045 4.15-6.635-2.02-3.193-7.638-.46-7.828 3.093-.19 3.555 1.04 4.232 3.678 3.54zM32.622 90.25c2.125-.557 8.634-3.206 7.41-12.67-.618-4.792-3.232 5.95-8.073 7.557-7.335 2.434-6.51 6.99.662 5.112z" fill="#F3F3F3"/></g></g></svg>
